assets/img/icons/duotone-icons/Cooking/Cutting board.svg

<?xml version="1.0" encoding="UTF-8"?>
<svg width="24px" height="24px" viewBox="0 0 24 24" version="1.1" xmlns="http://www.w3.org/2000/svg" xmlns:xlink="http://www.w3.org/1999/xlink">
    <!-- Generator: Sketch 52.2 (67145) - http://www.bohemiancoding.com/sketch -->
    <title>Stockholm-icons / Cooking / Cutting board </title>
    <desc>Created with Sketch.</desc>
    <g id="Stockholm-icons-/-Cooking-/-Cutting-board-" stroke="none" stroke-width="1" fill="none" fill-rule="evenodd">
        <rect id="bound" x="0" y="0" width="24" height="24"></rect>
        <path d="M8.37867966,15.1213203 C9.35499039,16.0976311 9.35499039,17.6805435 8.37867966,18.6568542 L6.25735931,20.7781746 C5.28104858,21.7544853 3.69813614,21.7544853 2.72182541,20.7781746 C1.74551468,19.8018639 1.74551468,18.2189514 2.72182541,17.2426407 L4.84314575,15.1213203 C5.81945648,14.1450096 7.40236893,14.1450096 8.37867966,15.1213203 Z M3.81784105,19.7528699 C4.30599642,20.2410253 5.09745264,20.2410253 5.58560801,19.7528699 C6.07376337,19.2647145 6.07376337,18.4732583 5.58560801,17.9851029 C5.09745264,17.4969476 4.30599642,17.4969476 3.81784105,17.9851029 C3.32968569,18.4732583 3.32968569,19.2647145 3.81784105,19.7528699 Z" id="Combined-Shape" fill="#335EEA" opacity="0.3"></path>
        <path d="M14.3890873,1.33273811 L22.1672619,9.1109127 C22.9483105,9.89196129 22.9483105,11.1582912 22.1672619,11.9393398 L12.9748737,21.131728 C12.1938252,21.9127766 10.9274952,21.9127766 10.1464466,21.131728 L2.36827202,13.3535534 C1.58722343,12.5725048 1.58722343,11.3061748 2.36827202,10.5251263 L11.5606602,1.33273811 C12.3417088,0.551689527 13.6080387,0.551689527 14.3890873,1.33273811 Z" id="Rectangle-134" fill="#335EEA"></path>
    </g>
</svg>

<svg width="24" height="24" viewBox="0 0 24 24" xmlns="http://www.w3.org/2000/svg"><g fill="none" fill-rule="evenodd"><path d="M0 0h24v24H0z"/><path d="M8.379 15.121a2.5 2.5 0 010 3.536l-2.122 2.121a2.5 2.5 0 01-3.535-3.535l2.121-2.122a2.5 2.5 0 013.536 0zm-4.561 4.632a1.25 1.25 0 101.768-1.768 1.25 1.25 0 00-1.768 1.768z" fill="#335EEA" opacity=".3"/><path d="M14.39 1.333l7.777 7.778a2 2 0 010 2.828l-9.192 9.193a2 2 0 01-2.829 0l-7.778-7.778a2 2 0 010-2.829l9.193-9.192a2 2 0 012.828 0z" fill="#335EEA"/></g></svg>
